src/img/logo.svg

<svg width="82" height="61" viewBox="0 0 82 61" fill="none" xmlns="http://www.w3.org/2000/svg">
<rect width="81.5387" height="8.08506" transform="translate(0 52.915)" fill="#111111"/>
<path d="M1.29004 59.2388V54.697H3.10854C3.44267 54.697 3.72136 54.7465 3.94461 54.8456C4.16785 54.9446 4.33566 55.0821 4.44802 55.2581C4.56038 55.4325 4.61657 55.6336 4.61657 55.8613C4.61657 56.0387 4.58108 56.1947 4.51012 56.3292C4.43915 56.4623 4.34157 56.5717 4.21738 56.6574C4.09467 56.7417 3.95422 56.8016 3.79602 56.837V56.8814C3.969 56.8888 4.13089 56.9376 4.2817 57.0278C4.43398 57.118 4.55743 57.2444 4.65205 57.407C4.74667 57.5681 4.79398 57.7603 4.79398 57.9836C4.79398 58.2246 4.7341 58.4397 4.61435 58.6289C4.49607 58.8167 4.32087 58.9653 4.08876 59.0747C3.85664 59.1841 3.57056 59.2388 3.23051 59.2388H1.29004ZM2.2503 58.4537H3.03314C3.30074 58.4537 3.4959 58.4027 3.61861 58.3007C3.74132 58.1972 3.80268 58.0597 3.80268 57.8882C3.80268 57.7626 3.77237 57.6517 3.71175 57.5556C3.65113 57.4595 3.56464 57.3841 3.45228 57.3294C3.3414 57.2747 3.20908 57.2473 3.05532 57.2473H2.2503V58.4537ZM2.2503 56.5975H2.96217C3.09376 56.5975 3.21055 56.5746 3.31257 56.5288C3.41606 56.4815 3.49737 56.4149 3.55651 56.3292C3.61713 56.2434 3.64744 56.1407 3.64744 56.0209C3.64744 55.8568 3.58904 55.7245 3.47224 55.624C3.35692 55.5234 3.19281 55.4732 2.97991 55.4732H2.2503V56.5975Z" fill="#FFCE00"/>
<path d="M8.30745 54.697H9.26771V57.6465C9.26771 57.9777 9.18861 58.2675 9.03042 58.5158C8.8737 58.7642 8.65415 58.9579 8.37176 59.0969C8.08938 59.2344 7.76042 59.3031 7.38489 59.3031C7.00789 59.3031 6.67819 59.2344 6.39581 59.0969C6.11342 58.9579 5.89387 58.7642 5.73715 58.5158C5.58044 58.2675 5.50208 57.9777 5.50208 57.6465V54.697H6.46234V57.5644C6.46234 57.7374 6.50004 57.8912 6.57544 58.0257C6.65232 58.1603 6.76025 58.266 6.89922 58.3429C7.0382 58.4197 7.20009 58.4582 7.38489 58.4582C7.57118 58.4582 7.73307 58.4197 7.87057 58.3429C8.00954 58.266 8.11673 58.1603 8.19213 58.0257C8.26901 57.8912 8.30745 57.7374 8.30745 57.5644V54.697Z" fill="#FFCE00"/>
<path d="M11.1013 54.697V59.2388H10.141V54.697H11.1013Z" fill="#FFCE00"/>
<path d="M11.9746 59.2388V54.697H12.9349V58.4471H14.882V59.2388H11.9746Z" fill="#FFCE00"/>
<path d="M17.2112 59.2388H15.6012V54.697H17.2245C17.6814 54.697 18.0746 54.7879 18.4043 54.9698C18.734 55.1501 18.9876 55.4096 19.165 55.7482C19.3439 56.0867 19.4333 56.4918 19.4333 56.9635C19.4333 57.4366 19.3439 57.8431 19.165 58.1832C18.9876 58.5232 18.7325 58.7842 18.3999 58.966C18.0687 59.1479 17.6725 59.2388 17.2112 59.2388ZM16.5614 58.416H17.1713C17.4552 58.416 17.6939 58.3658 17.8876 58.2652C18.0828 58.1632 18.2291 58.0058 18.3267 57.7929C18.4258 57.5785 18.4753 57.302 18.4753 56.9635C18.4753 56.6278 18.4258 56.3536 18.3267 56.1407C18.2291 55.9278 18.0835 55.7711 17.8898 55.6705C17.6961 55.57 17.4574 55.5197 17.1735 55.5197H16.5614V58.416Z" fill="#FFCE00"/>
<path d="M21.1882 54.697V59.2388H20.2279V54.697H21.1882Z" fill="#FFCE00"/>
<path d="M25.8604 54.697V59.2388H25.031L23.055 56.3802H23.0217V59.2388H22.0615V54.697H22.9042L24.8646 57.5534H24.9046V54.697H25.8604Z" fill="#FFCE00"/>
<path d="M29.7486 56.1651C29.7176 56.0572 29.674 55.9618 29.6178 55.879C29.5616 55.7947 29.4929 55.7238 29.4116 55.6661C29.3317 55.607 29.2401 55.5619 29.1366 55.5308C29.0345 55.4998 28.9214 55.4843 28.7973 55.4843C28.5651 55.4843 28.3611 55.5419 28.1852 55.6572C28.0107 55.7726 27.8747 55.9404 27.7771 56.1607C27.6795 56.3795 27.6308 56.6471 27.6308 56.9635C27.6308 57.2798 27.6788 57.5489 27.7749 57.7707C27.871 57.9925 28.007 58.1617 28.183 58.2785C28.3589 58.3939 28.5666 58.4515 28.8061 58.4515C29.0235 58.4515 29.209 58.4131 29.3628 58.3362C29.518 58.2578 29.6363 58.1477 29.7176 58.0058C29.8004 57.8638 29.8418 57.696 29.8418 57.5024L30.0369 57.5312H28.866V56.8082H30.7666V57.3804C30.7666 57.7796 30.6823 58.1226 30.5137 58.4094C30.3452 58.6947 30.1131 58.915 29.8174 59.0703C29.5217 59.224 29.1831 59.3009 28.8017 59.3009C28.3759 59.3009 28.0018 59.207 27.6795 59.0192C27.3572 58.83 27.1059 58.5617 26.9255 58.2142C26.7466 57.8653 26.6572 57.4513 26.6572 56.9723C26.6572 56.6042 26.7104 56.276 26.8169 55.9877C26.9248 55.6979 27.0756 55.4525 27.2693 55.2514C27.463 55.0503 27.6884 54.8973 27.9457 54.7923C28.2029 54.6874 28.4816 54.6349 28.7817 54.6349C29.039 54.6349 29.2785 54.6726 29.5003 54.748C29.722 54.8219 29.9187 54.9269 30.0902 55.0629C30.2631 55.1989 30.4043 55.3608 30.5137 55.5486C30.6232 55.7349 30.6934 55.9404 30.7244 56.1651H29.7486Z" fill="#FFCE00"/>
<path d="M34.06 54.697V59.2388H33.0998V54.697H34.06Z" fill="#FFCE00"/>
<path d="M34.9333 54.697H36.1176L37.3684 57.7485H37.4216L38.6724 54.697H39.8566V59.2388H38.9252V56.2826H38.8875L37.7121 59.2166H37.0778L35.9025 56.2715H35.8648V59.2388H34.9333V54.697Z" fill="#FFCE00"/>
<path d="M40.731 59.2388V54.697H42.5229C42.8674 54.697 43.1609 54.7628 43.4033 54.8944C43.6458 55.0245 43.8306 55.2056 43.9578 55.4377C44.0864 55.6683 44.1507 55.9345 44.1507 56.2361C44.1507 56.5377 44.0856 56.8038 43.9555 57.0344C43.8254 57.2651 43.6369 57.4447 43.39 57.5733C43.1446 57.7019 42.8474 57.7663 42.4985 57.7663H41.3564V56.9967H42.3433C42.5281 56.9967 42.6804 56.9649 42.8001 56.9014C42.9214 56.8363 43.0115 56.7469 43.0707 56.633C43.1313 56.5177 43.1616 56.3854 43.1616 56.2361C43.1616 56.0853 43.1313 55.9537 43.0707 55.8413C43.0115 55.7275 42.9214 55.6395 42.8001 55.5774C42.6789 55.5138 42.5251 55.482 42.3388 55.482H41.6913V59.2388H40.731Z" fill="#FFCE00"/>
<path d="M44.8577 59.2388V54.697H46.6496C46.9926 54.697 47.2853 54.7583 47.5278 54.8811C47.7717 55.0023 47.9573 55.1745 48.0844 55.3978C48.213 55.6195 48.2774 55.8805 48.2774 56.1806C48.2774 56.4822 48.2123 56.7417 48.0822 56.959C47.9521 57.1749 47.7636 57.3405 47.5167 57.4558C47.2713 57.5711 46.9741 57.6288 46.6252 57.6288H45.4254V56.857H46.4699C46.6533 56.857 46.8056 56.8319 46.9268 56.7816C47.048 56.7313 47.1382 56.6559 47.1973 56.5554C47.258 56.4549 47.2883 56.3299 47.2883 56.1806C47.2883 56.0298 47.258 55.9027 47.1973 55.7992C47.1382 55.6957 47.0473 55.6173 46.9246 55.5641C46.8033 55.5094 46.6503 55.482 46.4655 55.482H45.8179V59.2388H44.8577ZM47.3104 57.1719L48.4392 59.2388H47.3792L46.2748 57.1719H47.3104Z" fill="#FFCE00"/>
<path d="M53.2129 56.9679C53.2129 57.4632 53.119 57.8845 52.9313 58.232C52.745 58.5794 52.4907 58.8448 52.1684 59.0281C51.8476 59.21 51.4868 59.3009 51.0862 59.3009C50.6825 59.3009 50.3203 59.2092 49.9995 59.0259C49.6787 58.8426 49.4251 58.5772 49.2388 58.2298C49.0525 57.8823 48.9594 57.4617 48.9594 56.9679C48.9594 56.4726 49.0525 56.0512 49.2388 55.7038C49.4251 55.3564 49.6787 55.0917 49.9995 54.9099C50.3203 54.7266 50.6825 54.6349 51.0862 54.6349C51.4868 54.6349 51.8476 54.7266 52.1684 54.9099C52.4907 55.0917 52.745 55.3564 52.9313 55.7038C53.119 56.0512 53.2129 56.4726 53.2129 56.9679ZM52.2394 56.9679C52.2394 56.6471 52.1913 56.3765 52.0952 56.1562C52.0006 55.9359 51.8668 55.7689 51.6938 55.655C51.5208 55.5412 51.3183 55.4843 51.0862 55.4843C50.854 55.4843 50.6515 55.5412 50.4785 55.655C50.3055 55.7689 50.171 55.9359 50.0749 56.1562C49.9803 56.3765 49.933 56.6471 49.933 56.9679C49.933 57.2887 49.9803 57.5593 50.0749 57.7796C50.171 57.9999 50.3055 58.1669 50.4785 58.2808C50.6515 58.3946 50.854 58.4515 51.0862 58.4515C51.3183 58.4515 51.5208 58.3946 51.6938 58.2808C51.8668 58.1669 52.0006 57.9999 52.0952 57.7796C52.1913 57.5593 52.2394 57.2887 52.2394 56.9679Z" fill="#FFCE00"/>
<path d="M54.5719 54.697L55.6697 58.1477H55.7118L56.8118 54.697H57.8763L56.3106 59.2388H55.0731L53.5052 54.697H54.5719Z" fill="#FFCE00"/>
<path d="M58.5062 59.2388V54.697H61.5666V55.4887H59.4664V56.5709H61.4091V57.3626H59.4664V58.4471H61.5755V59.2388H58.5062Z" fill="#FFCE00"/>
<path d="M62.4133 54.697H63.5975L64.8483 57.7485H64.9015L66.1523 54.697H67.3365V59.2388H66.4051V56.2826H66.3674L65.1921 59.2166H64.5578L63.3824 56.2715H63.3447V59.2388H62.4133V54.697Z" fill="#FFCE00"/>
<path d="M68.211 59.2388V54.697H71.2714V55.4887H69.1712V56.5709H71.1139V57.3626H69.1712V58.4471H71.2803V59.2388H68.211Z" fill="#FFCE00"/>
<path d="M75.917 54.697V59.2388H75.0876L73.1116 56.3802H73.0783V59.2388H72.1181V54.697H72.9608L74.9212 57.5534H74.9612V54.697H75.917Z" fill="#FFCE00"/>
<path d="M76.6206 55.4887V54.697H80.2484V55.4887H78.9603V59.2388H78.0111V55.4887H76.6206Z" fill="#FFCE00"/>
<path d="M0.000976562 49.4749V35.3862H6.15973C7.68935 35.3862 9.03113 35.6814 10.1851 36.2718C11.339 36.8622 12.238 37.6807 12.882 38.7273C13.5261 39.7738 13.8481 41.0083 13.8481 42.4306C13.8481 43.8394 13.5261 45.0739 12.882 46.1339C12.238 47.1804 11.339 47.9989 10.1851 48.5893C9.03113 49.1797 7.68935 49.4749 6.15973 49.4749H0.000976562ZM2.61744 47.261H6.03897C7.09897 47.261 8.01138 47.0597 8.77619 46.6572C9.55442 46.2546 10.1515 45.6911 10.5675 44.9665C10.9968 44.242 11.2115 43.3966 11.2115 42.4306C11.2115 41.4511 10.9968 40.6057 10.5675 39.8946C10.1515 39.17 9.55442 38.6065 8.77619 38.204C8.01138 37.8014 7.09897 37.6002 6.03897 37.6002H2.61744V47.261Z" fill="#CA2A1D"/>
<path d="M20.1225 41.2431H27.1265V43.3966H20.1225V41.2431ZM20.3237 47.2811H28.2737V49.4749H17.7073V35.3862H27.992V37.58H20.3237V47.2811Z" fill="#CA2A1D"/>
<path d="M32.2687 49.4749V35.3862H34.4223L43.2579 46.2345H42.1912V35.3862H44.7875V49.4749H42.634L33.7984 38.6266H34.8651V49.4749H32.2687Z" fill="#CA2A1D"/>
<path d="M47.6484 49.4749L53.9883 35.3862H56.5645L62.9245 49.4749H60.1873L54.7329 36.775H55.7795L50.3453 49.4749H47.6484ZM50.5667 46.2144L51.2711 44.1614H58.879L59.5835 46.2144H50.5667Z" fill="#CA2A1D"/>
<path d="M65.7944 49.4749V35.3862H68.4109V47.261H75.7773V49.4749H65.7944Z" fill="#CA2A1D"/>
<path d="M78.9211 49.4749V35.3862H81.5376V49.4749H78.9211Z" fill="#CA2A1D"/>
<path d="M48.9336 29.185L45.6378 25.4346L52.002 22.2146L63.7077 29.3365H62.306L53.0627 23.7678L48.9336 29.185Z" fill="#111111"/>
<path d="M40.107 21.7221L20.2187 29.829L32.9851 29.4123L39.9176 23.389L47.835 31.9504H49.2366L40.107 21.7221Z" fill="#111111"/>
<path d="M10.9754 20.1311L0.40625 31.9883L12.2255 21.3433C12.6498 20.9493 13.1347 20.8508 13.5514 20.8508H16.3926C17.5442 20.8508 18.246 20.4182 18.6277 20.0174C20.6481 17.896 24.7192 13.6229 24.8404 13.5017C24.9616 13.3804 25.0929 13.3754 25.1434 13.388C25.6283 13.4789 27.1133 15.0422 27.7952 15.8125C28.0983 16.1156 28.0966 16.2671 28.0225 16.4186C26.0526 20.4493 26.0147 23.5026 26.3557 25.5104L46.0924 7.47837C46.3045 7.32684 46.4344 7.32684 46.6227 7.44049C48.3805 8.5012 49.1987 11.3045 49.123 12.6304C46.0015 15.0852 43.9331 19.1461 43.1754 21.8358L47.835 19.3356C48.3199 19.1537 48.7063 19.184 49.123 19.3356L62.7985 26.0786C63.5562 26.4423 64.2002 26.3817 64.6926 26.1544L68.102 24.4497C68.8976 24.033 69.39 23.9193 70.6023 24.4497L81.1336 29.6396L69.8825 17.593C69.1375 18.338 67.5944 19.8886 67.3823 20.1311C67.1701 20.3735 66.9403 20.2321 66.8519 20.1311L49.1609 1.00049C47.4562 3.08402 44.0013 7.30411 43.8194 7.51625C43.5922 7.78143 43.0239 8.12237 42.1526 8.08449C41.4556 8.05418 41.0035 8.32441 40.8646 8.46331L32.9093 16.6459C32.6669 16.8884 32.5305 16.7596 32.379 16.6459L25.5601 10.9636C24.9237 10.3877 24.6888 10.509 24.2721 10.9636L17.7943 17.9339C16.9457 18.8128 16.5441 19.3356 15.7486 19.3356H12.415C11.7785 19.3356 11.1901 19.8659 10.9754 20.1311Z" fill="#111111"/>
<path d="M16.2411 22.5177L8.74037 32.2534L10.5208 31.4958L16.6199 24.1087L21.2794 28.0485L25.3707 25.965L16.2411 22.5177Z" fill="#111111"/>
<path d="M16.5063 26.609H15.4456V27.7076H16.5063V26.609Z" fill="#111111"/>
<path d="M53.5173 26.3438H52.5324V27.4045H53.5173V26.3438Z" fill="#111111"/>
<path d="M54.8053 26.3438H53.8204V27.4045H54.8053V26.3438Z" fill="#111111"/>
<path d="M54.8053 27.6318H53.8204V28.6925H54.8053V27.6318Z" fill="#111111"/>
<path d="M53.5173 27.6318H52.5324V28.6925H53.5173V27.6318Z" fill="#111111"/>
<path d="M40.8646 25.8892H39.6524V27.1772H40.8646V25.8892Z" fill="#111111"/>
<path d="M39.1978 25.8892H37.9856V27.1772H39.1978V25.8892Z" fill="#111111"/>
<path d="M39.1978 27.6318H37.9856V28.9198H39.1978V27.6318Z" fill="#111111"/>
<path d="M40.8646 27.6318H39.6524V28.9198H40.8646V27.6318Z" fill="#111111"/>
<path d="M17.9837 26.609H16.923V27.7076H17.9837V26.609Z" fill="#111111"/>
<path d="M17.9837 27.9349H16.923V29.0334H17.9837V27.9349Z" fill="#111111"/>
<path d="M16.5441 27.9349H15.4834V29.0334H16.5441V27.9349Z" fill="#111111"/>
<path d="M48.9336 29.185L45.6378 25.4346L52.002 22.2146L63.7077 29.3365H62.306L53.0627 23.7678L48.9336 29.185Z" stroke="#111111" stroke-width="0.0757645"/>
<path d="M40.107 21.7221L20.2187 29.829L32.9851 29.4123L39.9176 23.389L47.835 31.9504H49.2366L40.107 21.7221Z" stroke="#111111" stroke-width="0.0757645"/>
<path d="M10.9754 20.1311L0.40625 31.9883L12.2255 21.3433C12.6498 20.9493 13.1347 20.8508 13.5514 20.8508H16.3926C17.5442 20.8508 18.246 20.4182 18.6277 20.0174C20.6481 17.896 24.7192 13.6229 24.8404 13.5017C24.9616 13.3804 25.0929 13.3754 25.1434 13.388C25.6283 13.4789 27.1133 15.0422 27.7952 15.8125C28.0983 16.1156 28.0966 16.2671 28.0225 16.4186C26.0526 20.4493 26.0147 23.5026 26.3557 25.5104L46.0924 7.47837C46.3045 7.32684 46.4344 7.32684 46.6227 7.44049C48.3805 8.5012 49.1987 11.3045 49.123 12.6304C46.0015 15.0852 43.9331 19.1461 43.1754 21.8358L47.835 19.3356C48.3199 19.1537 48.7063 19.184 49.123 19.3356L62.7985 26.0786C63.5562 26.4423 64.2002 26.3817 64.6926 26.1544L68.102 24.4497C68.8976 24.033 69.39 23.9193 70.6023 24.4497L81.1336 29.6396L69.8825 17.593C69.1375 18.338 67.5944 19.8886 67.3823 20.1311C67.1701 20.3735 66.9403 20.2321 66.8519 20.1311L49.1609 1.00049C47.4562 3.08402 44.0013 7.30411 43.8194 7.51625C43.5922 7.78143 43.0239 8.12237 42.1526 8.08449C41.4556 8.05418 41.0035 8.32441 40.8646 8.46331L32.9093 16.6459C32.6669 16.8884 32.5305 16.7596 32.379 16.6459L25.5601 10.9636C24.9237 10.3877 24.6888 10.509 24.2721 10.9636L17.7943 17.9339C16.9457 18.8128 16.5441 19.3356 15.7486 19.3356H12.415C11.7785 19.3356 11.1901 19.8659 10.9754 20.1311Z" stroke="#111111" stroke-width="0.0757645"/>
<path d="M16.2411 22.5177L8.74037 32.2534L10.5208 31.4958L16.6199 24.1087L21.2794 28.0485L25.3707 25.965L16.2411 22.5177Z" stroke="#111111" stroke-width="0.0757645"/>
<path d="M16.5063 26.609H15.4456V27.7076H16.5063V26.609Z" stroke="#111111" stroke-width="0.0757645"/>
<path d="M53.5173 26.3438H52.5324V27.4045H53.5173V26.3438Z" stroke="#111111" stroke-width="0.0757645"/>
<path d="M54.8053 26.3438H53.8204V27.4045H54.8053V26.3438Z" stroke="#111111" stroke-width="0.0757645"/>
<path d="M54.8053 27.6318H53.8204V28.6925H54.8053V27.6318Z" stroke="#111111" stroke-width="0.0757645"/>
<path d="M53.5173 27.6318H52.5324V28.6925H53.5173V27.6318Z" stroke="#111111" stroke-width="0.0757645"/>
<path d="M40.8646 25.8892H39.6524V27.1772H40.8646V25.8892Z" stroke="#111111" stroke-width="0.0757645"/>
<path d="M39.1978 25.8892H37.9856V27.1772H39.1978V25.8892Z" stroke="#111111" stroke-width="0.0757645"/>
<path d="M39.1978 27.6318H37.9856V28.9198H39.1978V27.6318Z" stroke="#111111" stroke-width="0.0757645"/>
<path d="M40.8646 27.6318H39.6524V28.9198H40.8646V27.6318Z" stroke="#111111" stroke-width="0.0757645"/>
<path d="M17.9837 26.609H16.923V27.7076H17.9837V26.609Z" stroke="#111111" stroke-width="0.0757645"/>
<path d="M17.9837 27.9349H16.923V29.0334H17.9837V27.9349Z" stroke="#111111" stroke-width="0.0757645"/>
<path d="M16.5441 27.9349H15.4834V29.0334H16.5441V27.9349Z" stroke="#111111" stroke-width="0.0757645"/>
</svg>

<svg width="82" height="61" fill="none" xmlns="http://www.w3.org/2000/svg"><path fill="#111" d="M0 52.915h81.539V61H0z"/><path d="M1.29 59.239v-4.542h1.819c.334 0 .612.05.836.149.223.099.39.236.503.412.112.174.169.376.169.603a.918.918 0 01-.4.796 1.198 1.198 0 01-.421.18v.044a1.037 1.037 0 01.856.526c.095.161.142.353.142.577 0 .24-.06.456-.18.645a1.21 1.21 0 01-.525.446c-.232.11-.518.164-.858.164H1.29zm.96-.785h.783c.268 0 .463-.051.586-.153a.513.513 0 00.184-.413.61.61 0 00-.091-.332.618.618 0 00-.26-.227.889.889 0 00-.397-.082H2.25v1.207zm0-1.857h.712a.847.847 0 00.35-.068.583.583 0 00.245-.2.52.52 0 00.09-.308.498.498 0 00-.175-.397c-.115-.1-.28-.15-.492-.15h-.73v1.123zm6.057-1.9h.96v2.95c0 .33-.078.62-.237.869a1.587 1.587 0 01-.658.58 2.23 2.23 0 01-.987.207c-.377 0-.707-.069-.99-.206a1.587 1.587 0 01-.658-.581 1.594 1.594 0 01-.235-.87v-2.949h.96v2.867c0 .173.038.327.113.462a.83.83 0 00.324.317.99.99 0 00.486.115.98.98 0 00.486-.115.81.81 0 00.321-.317.913.913 0 00.115-.462v-2.867zm2.794 0v4.542h-.96v-4.542h.96zm.874 4.542v-4.542h.96v3.75h1.947v.792h-2.907zm5.236 0h-1.61v-4.542h1.623c.457 0 .85.09 1.18.273.33.18.584.44.761.778.179.339.268.744.268 1.216 0 .473-.09.88-.268 1.22-.177.34-.432.6-.765.782-.331.182-.727.273-1.189.273zm-.65-.823h.61c.284 0 .523-.05.717-.15a.97.97 0 00.439-.473c.099-.215.148-.491.148-.83 0-.335-.05-.61-.148-.822a.962.962 0 00-.437-.47 1.538 1.538 0 00-.716-.151h-.613v2.896zm4.627-3.719v4.542h-.96v-4.542h.96zm4.672 0v4.542h-.829l-1.976-2.859h-.033v2.859h-.96v-4.542h.842l1.96 2.856h.04v-2.856h.956zm3.889 1.468a.994.994 0 00-.131-.286.887.887 0 00-.481-.348 1.165 1.165 0 00-.34-.047c-.232 0-.436.058-.612.173-.174.116-.31.283-.408.504a1.967 1.967 0 00-.146.803c0 .316.048.585.144.807.096.221.232.39.408.508.176.115.384.172.623.172.217 0 .403-.038.557-.115a.827.827 0 00.355-.33.982.982 0 00.124-.504l.195.03h-1.171v-.724h1.9v.572c0 .4-.084.743-.252 1.03-.169.285-.4.505-.697.66a2.17 2.17 0 01-1.015.23c-.426 0-.8-.093-1.122-.28a1.954 1.954 0 01-.755-.806c-.178-.349-.268-.763-.268-1.242 0-.368.053-.696.16-.984.108-.29.259-.535.452-.737.194-.2.42-.354.677-.459a2.19 2.19 0 01.836-.157c.257 0 .497.038.718.113.222.074.419.179.59.315.173.136.314.298.424.486.11.186.18.391.21.616h-.975zm4.311-1.468v4.542h-.96v-4.542h.96zm.873 0h1.185l1.25 3.051h.054l1.25-3.051h1.185v4.542h-.932v-2.956h-.037l-1.176 2.934h-.634l-1.175-2.945h-.038v2.967h-.932v-4.542zm5.798 4.542v-4.542h1.792c.344 0 .638.066.88.197.243.13.428.312.555.544.128.23.193.496.193.798 0 .302-.065.568-.196.798-.13.231-.318.41-.565.54-.245.128-.543.192-.892.192h-1.142v-.77h.987a.97.97 0 00.457-.095.632.632 0 00.27-.268.84.84 0 00.092-.397.82.82 0 00-.091-.395.607.607 0 00-.27-.264.988.988 0 00-.462-.095h-.648v3.757h-.96zm4.127 0v-4.542h1.792c.343 0 .635.061.878.184.244.121.43.294.556.517.129.221.193.482.193.783 0 .301-.065.56-.195.778-.13.216-.318.381-.565.497-.246.115-.543.173-.892.173h-1.2v-.772h1.045c.183 0 .336-.025.457-.075a.543.543 0 00.27-.227.707.707 0 00.091-.374.752.752 0 00-.09-.382.557.557 0 00-.273-.235 1.12 1.12 0 00-.46-.082h-.647v3.757h-.96zm2.452-2.067l1.13 2.067h-1.06l-1.105-2.067h1.035zm5.903-.204c0 .495-.094.916-.282 1.264-.186.347-.44.613-.763.796a2.15 2.15 0 01-1.082.273c-.404 0-.766-.092-1.087-.275a1.958 1.958 0 01-.76-.796c-.186-.348-.28-.768-.28-1.262 0-.495.093-.917.28-1.264.186-.348.44-.612.76-.794a2.155 2.155 0 011.087-.275c.4 0 .762.092 1.082.275.323.182.577.446.763.794.188.347.282.769.282 1.264zm-.974 0c0-.32-.048-.592-.144-.812a1.099 1.099 0 00-.401-.501 1.08 1.08 0 00-.608-.17 1.08 1.08 0 00-.608.17c-.172.114-.307.28-.403.501-.095.22-.142.491-.142.812 0 .32.047.591.142.812.096.22.23.387.403.5.173.115.376.172.608.172.232 0 .435-.057.608-.171.173-.114.307-.281.401-.501.096-.22.144-.491.144-.812zm2.333-2.271l1.098 3.45h.042l1.1-3.45h1.064l-1.565 4.542h-1.238l-1.568-4.542h1.067zm3.934 4.542v-4.542h3.06v.792h-2.1v1.082h1.943v.792h-1.943v1.084h2.11v.792h-3.07zm3.907-4.542h1.184l1.251 3.051h.053l1.251-3.051h1.184v4.542h-.93v-2.956h-.039l-1.175 2.934h-.634l-1.176-2.945h-.037v2.967h-.932v-4.542zm5.798 4.542v-4.542h3.06v.792h-2.1v1.082h1.943v.792H69.17v1.084h2.11v.792h-3.07zm7.706-4.542v4.542h-.83l-1.975-2.859h-.034v2.859h-.96v-4.542h.843l1.96 2.856h.04v-2.856h.956zm.703.792v-.792h3.628v.792H78.96v3.75h-.949v-3.75h-1.39z" fill="#FFCE00"/><path d="M.001 49.475V35.386H6.16c1.53 0 2.871.295 4.025.886 1.154.59 2.053 1.409 2.697 2.455.644 1.047.966 2.281.966 3.704 0 1.408-.322 2.643-.966 3.703-.644 1.046-1.543 1.865-2.697 2.455-1.154.59-2.496.886-4.025.886H0zm2.616-2.214H6.04c1.06 0 1.972-.201 2.737-.604a4.279 4.279 0 001.792-1.69c.429-.725.643-1.57.643-2.536 0-.98-.214-1.825-.643-2.536a4.278 4.278 0 00-1.792-1.691C8.011 37.801 7.1 37.6 6.04 37.6H2.617v9.661zm17.505-6.018h7.005v2.154h-7.005v-2.154zm.202 6.038h7.95v2.194H17.707V35.386h10.285v2.194h-7.668v9.701zm11.945 2.194V35.386h2.153l8.836 10.848H42.19V35.386h2.596v14.089h-2.153l-8.836-10.848h1.067v10.848H32.27zm15.379 0l6.34-14.089h2.577l6.36 14.089h-2.738l-5.454-12.7h1.047l-5.435 12.7h-2.697zm2.919-3.26l.704-2.054h7.608l.705 2.053h-9.017zm15.227 3.26V35.386h2.617v11.875h7.366v2.214h-9.983zm13.127 0V35.386h2.617v14.089H78.92z" fill="#CA2A1D"/><path d="M48.934 29.185l-3.296-3.75 6.364-3.22 11.706 7.122h-1.402l-9.243-5.57-4.13 5.418zm-8.827-7.463L20.219 29.83l12.766-.417 6.933-6.023 7.917 8.561h1.402l-9.13-10.228z" fill="#111"/><path d="M10.975 20.131L.406 31.988l11.82-10.645c.424-.394.909-.492 1.325-.492h2.842c1.151 0 1.853-.433 2.235-.834 2.02-2.121 6.091-6.394 6.212-6.515.122-.122.253-.127.303-.114.485.09 1.97 1.654 2.652 2.425.303.303.302.454.227.606-1.97 4.03-2.007 7.084-1.666 9.091L46.092 7.478c.212-.151.342-.151.53-.038 1.758 1.061 2.577 3.865 2.501 5.19-3.121 2.455-5.19 6.516-5.948 9.206l4.66-2.5c.485-.182.871-.152 1.288 0l13.675 6.743c.758.363 1.402.303 1.895.075l3.409-1.704c.796-.417 1.288-.53 2.5 0l10.532 5.19-11.252-12.047c-.745.745-2.288 2.296-2.5 2.538-.212.242-.442.101-.53 0L49.16 1.001C47.456 3.083 44 7.303 43.819 7.515c-.227.265-.795.606-1.666.568-.697-.03-1.15.24-1.288.38l-7.956 8.182c-.242.242-.378.114-.53 0l-6.819-5.682c-.636-.576-.871-.455-1.288 0l-6.478 6.97c-.848.879-1.25 1.402-2.045 1.402h-3.334c-.636 0-1.225.53-1.44.795z" fill="#111"/><path d="M16.241 22.518l-7.5 9.735 1.78-.757 6.099-7.387 4.66 3.94 4.09-2.084-9.129-3.447z" fill="#111"/><path d="M16.506 26.609h-1.06v1.099h1.06v-1.099zm37.011-.265h-.985v1.06h.985v-1.06zm1.288 0h-.985v1.06h.985v-1.06zm0 1.288h-.985v1.06h.985v-1.06zm-1.288 0h-.985v1.06h.985v-1.06zM40.865 25.89h-1.213v1.287h1.213V25.89zm-1.667 0h-1.212v1.287h1.212V25.89zm0 1.742h-1.212v1.288h1.212v-1.288zm1.667 0h-1.213v1.288h1.213v-1.288zm-22.881-1.023h-1.061v1.099h1.06v-1.099zm0 1.326h-1.061v1.098h1.06v-1.098zm-1.44 0h-1.06v1.098h1.06v-1.098z" fill="#111"/><path d="M48.934 29.185l-3.296-3.75 6.364-3.22 11.706 7.122h-1.402l-9.243-5.57-4.13 5.418zm-8.827-7.463L20.219 29.83l12.766-.417 6.933-6.023 7.917 8.561h1.402l-9.13-10.228z" stroke="#111" stroke-width=".076"/><path d="M10.975 20.131L.406 31.988l11.82-10.645c.424-.394.909-.492 1.325-.492h2.842c1.151 0 1.853-.433 2.235-.834 2.02-2.121 6.091-6.394 6.212-6.515.122-.122.253-.127.303-.114.485.09 1.97 1.654 2.652 2.425.303.303.302.454.227.606-1.97 4.03-2.007 7.084-1.666 9.091L46.092 7.478c.212-.151.342-.151.53-.038 1.758 1.061 2.577 3.865 2.501 5.19-3.121 2.455-5.19 6.516-5.948 9.206l4.66-2.5c.485-.182.871-.152 1.288 0l13.675 6.743c.758.363 1.402.303 1.895.075l3.409-1.704c.796-.417 1.288-.53 2.5 0l10.532 5.19-11.252-12.047c-.745.745-2.288 2.296-2.5 2.538-.212.242-.442.101-.53 0L49.16 1.001C47.456 3.083 44 7.303 43.819 7.515c-.227.265-.795.606-1.666.568-.697-.03-1.15.24-1.288.38l-7.956 8.182c-.242.242-.378.114-.53 0l-6.819-5.682c-.636-.576-.871-.455-1.288 0l-6.478 6.97c-.848.879-1.25 1.402-2.045 1.402h-3.334c-.636 0-1.225.53-1.44.795z" stroke="#111" stroke-width=".076"/><path d="M16.241 22.518l-7.5 9.735 1.78-.757 6.099-7.387 4.66 3.94 4.09-2.084-9.129-3.447z" stroke="#111" stroke-width=".076"/><path d="M16.506 26.609h-1.06v1.099h1.06v-1.099zm37.011-.265h-.985v1.06h.985v-1.06zm1.288 0h-.985v1.06h.985v-1.06zm0 1.288h-.985v1.06h.985v-1.06zm-1.288 0h-.985v1.06h.985v-1.06zM40.865 25.89h-1.213v1.287h1.213V25.89zm-1.667 0h-1.212v1.287h1.212V25.89zm0 1.742h-1.212v1.288h1.212v-1.288zm1.667 0h-1.213v1.288h1.213v-1.288zm-22.881-1.023h-1.061v1.099h1.06v-1.099zm0 1.326h-1.061v1.098h1.06v-1.098zm-1.44 0h-1.06v1.098h1.06v-1.098z" stroke="#111" stroke-width=".076"/></svg>
